public/icons/img/quick-balance.svg

<?xml version="1.0" encoding="UTF-8"?>
<svg width="50px" height="60px" viewBox="0 0 50 60" version="1.1" xmlns="http://www.w3.org/2000/svg" xmlns:xlink="http://www.w3.org/1999/xlink">
    <title>UI Elements/Icon / Account Settings / Quick Balance</title>
    <defs>
        <rect id="path-1" x="0" y="0" width="24.75" height="3.42857143" rx="1.71428571"></rect>
    </defs>
    <g id="Iconography-&amp;-Interface-Details" stroke="none" stroke-width="1" fill="none" fill-rule="evenodd">
        <g id="Icons" transform="translate(-794.000000, -370.000000)">
            <g id="UI-Elements/Icon-/-Account-Settings-/-Quick-Balance" transform="translate(783.000000, 368.000000)">
                <rect id="Rectangle" x="0" y="0" width="72" height="64"></rect>
                <g id="Group" transform="translate(11.250000, 2.285714)">
                    <g id="Rectangle-Copy-17" transform="translate(5.625000, 9.142857)">
                        <mask id="mask-2" fill="white">
                            <use xlink:href="#path-1"></use>
                        </mask>
                        <use id="Mask" fill="#004B2E" xlink:href="#path-1"></use>
                    </g>
                    <path d="M32.5488463,59.4269857 L36.8743612,59.4285714 C37.8562953,59.4285714 38.671738,58.4495529 38.6714313,57.2338276 L38.6701504,52.1569277 L39.5688884,51.8636209 C46.9003251,49.6132964 49.5011551,43.4530664 49.5,38.8732763 C49.4978581,30.3853144 43.5064222,26.8564201 37.63436,24.5134393 C32.1218524,22.2885451 30.3595533,20.9405178 30.3590513,18.9508839 C30.3586013,17.1670911 32.0479172,15.3812482 35.8341449,15.3826361 C40.0046327,15.384165 42.6160112,16.8340893 43.7309843,17.4629106 C43.9714505,17.5947231 44.2231365,17.6689111 44.4725777,17.6690025 C45.166892,17.6692571 45.8026942,17.1727807 46.1013387,16.4099643 L47.8147218,11.9758751 C48.0190728,11.4627733 48.0413865,10.8480471 47.8749714,10.3073897 C47.7197865,9.75024798 47.3826197,9.31102239 46.9511104,9.06392509 C44.8903027,7.87765115 42.6497824,7.11669293 40.119556,6.75073108 L39.0656761,6.58843278 L39.0645648,2.18392385 C39.0642623,0.984705928 38.2618426,0.00192430882 37.2663903,0.00155939433 L33.0127804,0 C32.0308462,0 31.2154035,0.979018563 31.2157068,2.1810466 L31.2169434,7.08231417 L30.3182013,7.35915366 C24.4000218,9.18742471 20.864043,13.8238768 20.8655386,19.751821 C20.8675105,27.5674621 27.2075305,31.0522249 33.4276239,33.4395926 C39.1671363,35.7249174 39.9473146,37.7010675 39.947728,39.3393664 C39.948367,41.8723366 37.2658561,43.7127533 33.5740253,43.7113999 C30.4349423,43.7102492 27.0551619,42.7293329 24.5380742,41.0873013 C24.2751281,40.9115726 23.9874861,40.8236509 23.6863653,40.8235405 C23.4953685,40.8234705 23.3021336,40.8673078 23.1111554,40.9413336 C22.6438251,41.1469823 22.2596716,41.5694551 22.0576154,42.1264658 L20.4049347,46.6181847 C20.0344378,47.6581438 20.3448291,48.8574754 21.1606423,49.4148803 C23.2574765,50.8948248 26.3744015,51.9909298 29.681857,52.4476624 L30.7492475,52.5797779 L30.7504218,57.2340361 C30.7507278,58.4470215 31.5531467,59.426993 32.548599,59.4273579 L32.5488463,59.4269857 Z" id="Fill-1-Copy-7" fill="#00B16E"></path>
                    <rect id="Mask" fill="#00B16E" x="0" y="9.14285714" width="4.5" height="3.42857143" rx="1.71428571"></rect>
                    <rect id="Mask-Copy-7" fill="#FFFFFF" x="10.125" y="18.2857143" width="18" height="3.42857143" rx="1.71428571"></rect>
                    <rect id="Mask-Copy-5" fill="#00B16E" x="0" y="18.2857143" width="18" height="3.42857143" rx="1.71428571"></rect>
                    <rect id="Mask-Copy-6" fill="#00B16E" x="13.5" y="28.5714286" width="19.125" height="3.42857143" rx="1.71428571"></rect>
                    <rect id="Mask-Copy-9" fill="#004B2E" x="0" y="28.5714286" width="5.625" height="3.42857143" rx="1.71428571"></rect>
                    <rect id="Mask" fill="#004B2E" x="11.25" y="36.5714286" width="7.875" height="3.42857143" rx="1.71428571"></rect>
                    <rect id="Mask-Copy-2" fill="#FFFFFF" x="7.875" y="43.4285714" width="19.125" height="3.42857143" rx="1.71428571"></rect>
                    <rect id="Mask-Copy-3" fill="#00B16E" x="1.125" y="43.4285714" width="19.125" height="3.42857143" rx="1.71428571"></rect>
                </g>
            </g>
        </g>
    </g>
</svg>

<svg xmlns="http://www.w3.org/2000/svg" xmlns:xlink="http://www.w3.org/1999/xlink" width="50" height="60"
     xmlns:v="https://vecta.io/nano">
    <defs>
        <rect id="A" width="24.75" height="3.429" rx="1.714"/>
    </defs>
    <g transform="translate(.25 .286)" fill-rule="evenodd">
        <use fill="#004b2e" xlink:href="#A" transform="translate(5.625 9.143)"/>
        <g fill="#00b16e">
            <path d="M32.55 59.427l4.326.002c.982 0 1.797-.98 1.797-2.195v-5.077l.9-.293c7.33-2.25 9.932-8.41 9.93-13-.002-8.488-5.994-12.017-11.866-14.36-5.513-2.225-7.275-3.573-7.275-5.563 0-1.784 1.69-3.57 5.475-3.568 4.17.002 6.782 1.45 7.897 2.08a1.55 1.55 0 0 0 .742.206c.694 0 1.33-.496 1.63-1.26l1.713-4.434a2.57 2.57 0 0 0 .06-1.668c-.155-.557-.492-.996-.924-1.243-2.06-1.186-4.3-1.947-6.832-2.313l-1.054-.162-.001-4.405c0-1.2-.803-2.182-1.798-2.182L33.013 0c-.982 0-1.797.98-1.797 2.18l.001 4.9-.9.277c-5.918 1.828-9.454 6.465-9.453 12.393.002 7.816 6.342 11.3 12.562 13.688 5.74 2.285 6.52 4.26 6.52 5.9.001 2.533-2.682 4.373-6.374 4.372-3.14-.001-6.52-.982-9.036-2.624-.263-.176-.55-.264-.852-.264-.19 0-.384.044-.575.118-.467.206-.85.628-1.054 1.185l-1.653 4.492c-.37 1.04-.06 2.24.756 2.797 2.097 1.48 5.214 2.576 8.52 3.033l1.067.132v4.654c0 1.213.803 2.193 1.798 2.193h0z"/>
            <rect y="9.143" width="4.5" height="3.429" rx="1.714"/>
        </g>
        <rect fill="#fff" x="10.125" y="18.286" width="18" height="3.429" rx="1.714"/>
        <g fill="#00b16e">
            <rect y="18.286" width="18" height="3.429" rx="1.714"/>
            <rect x="13.5" y="28.571" width="19.125" height="3.429" rx="1.714"/>
        </g>
        <g fill="#004b2e">
            <rect y="28.571" width="5.625" height="3.429" rx="1.714"/>
            <rect x="11.25" y="36.571" width="7.875" height="3.429" rx="1.714"/>
        </g>
        <rect fill="#fff" x="7.875" y="43.429" width="19.125" height="3.429" rx="1.714"/>
        <rect fill="#00b16e" x="1.125" y="43.429" width="19.125" height="3.429" rx="1.714"/>
    </g>
</svg>
